src/assets/DetailTopBoxesSvg3.svg

<svg width="47" height="46" viewBox="0 0 47 46" fill="none" xmlns="http://www.w3.org/2000/svg">
<path d="M17.1988 35.9375H3.74086C2.94795 35.9375 2.2992 35.2906 2.2992 34.5V2.875C2.2992 2.08437 2.94795 1.4375 3.74086 1.4375H16.9032C17.415 1.4375 17.898 1.71781 18.1503 2.16344L20.4137 6.10938C20.5434 6.33219 20.7813 6.46875 21.0408 6.46875H42.6657V25.875C42.6657 26.2703 42.9901 26.5938 43.3865 26.5938C43.783 26.5938 44.1073 26.2703 44.1073 25.875V2.875C44.1073 1.28656 42.8171 0 41.224 0H3.74086C2.14783 0 0.857544 1.28656 0.857544 2.875V34.5C0.857544 36.0884 2.14783 37.375 3.74086 37.375H17.1988C17.5952 37.375 17.9196 37.0516 17.9196 36.6562C17.9196 36.2609 17.5952 35.9375 17.1988 35.9375ZM42.6657 2.875V5.03125H21.4589L19.4045 1.44469C19.4045 1.44469 19.4045 1.44469 19.4045 1.4375H41.2312C42.0241 1.4375 42.6729 2.08437 42.6729 2.875H42.6657ZM46.9907 45.2166C47.0051 45.4178 46.9402 45.6191 46.8033 45.7628C46.6663 45.9137 46.4717 45.9928 46.2698 45.9928H34.7654C34.3689 45.9928 34.0446 45.6694 34.0446 45.2741C34.0446 44.8787 34.3689 44.5553 34.7654 44.5553H45.4841L44.165 29.4616H29.6259L29.3736 32.4013C29.3375 32.7966 28.9915 33.0913 28.5951 33.0553C28.1986 33.0194 27.9031 32.6744 27.9391 32.2791L28.2491 28.6853C28.2779 28.3116 28.5951 28.0312 28.9699 28.0312H44.8282C45.203 28.0312 45.513 28.3188 45.549 28.6853L46.9907 45.2166ZM30.4116 34.5H20.32C19.9595 34.5 19.6568 34.7659 19.6063 35.1181L18.1647 45.1806C18.1358 45.3891 18.1935 45.5975 18.3305 45.7556C18.4674 45.9137 18.6693 46 18.8783 46H31.8532C32.0623 46 32.2641 45.9066 32.4011 45.7556C32.538 45.5975 32.6029 45.3891 32.5669 45.1806L31.1252 35.1181C31.0747 34.7659 30.772 34.5 30.4116 34.5ZM19.7073 44.5625L20.9399 35.9375H29.7845L31.0171 44.5625H19.7073ZM27.5283 38.8125V39.5312C27.5283 40.7172 26.5551 41.6875 25.3658 41.6875C24.1764 41.6875 23.2033 40.7172 23.2033 39.5312V38.8125C23.2033 38.4172 23.5277 38.0938 23.9241 38.0938C24.3206 38.0938 24.6449 38.4172 24.6449 38.8125V39.5312C24.6449 39.9266 24.9693 40.25 25.3658 40.25C25.7622 40.25 26.0866 39.9266 26.0866 39.5312V38.8125C26.0866 38.4172 26.411 38.0938 26.8074 38.0938C27.2039 38.0938 27.5283 38.4172 27.5283 38.8125ZM34.7366 32.3438V33.7812C34.7366 34.9672 35.7097 35.9375 36.899 35.9375C38.0884 35.9375 39.0615 34.9672 39.0615 33.7812V32.3438C39.0615 31.9484 39.3859 31.625 39.7824 31.625C40.1788 31.625 40.5032 31.9484 40.5032 32.3438V33.7812C40.5032 35.765 38.8885 37.375 36.899 37.375C34.9096 37.375 33.2949 35.765 33.2949 33.7812V32.3438C33.2949 31.9484 33.6193 31.625 34.0157 31.625C34.4122 31.625 34.7366 31.9484 34.7366 32.3438ZM15.995 5.03125C15.5985 5.03125 15.2741 4.70781 15.2741 4.3125C15.2741 3.91719 15.5985 3.59375 15.995 3.59375C16.3914 3.59375 16.7158 3.91719 16.7158 4.3125C16.7158 4.70781 16.3914 5.03125 15.995 5.03125ZM10.2283 31.625H21.7616C22.1581 31.625 22.4824 31.3016 22.4824 30.9062V22.8922L26.2019 22.2741C26.3966 22.2453 26.5623 22.1303 26.6777 21.9722C26.7858 21.8141 26.8291 21.6128 26.793 21.4259L25.3514 14.2384C25.3081 14.0228 25.1639 13.8359 24.9693 13.7353L19.2027 10.8603C19.1234 10.8244 18.9864 10.7812 18.8783 10.7812H13.1117C13.0179 10.7812 12.8882 10.81 12.7873 10.8603L7.02064 13.7353C6.81881 13.8359 6.68185 14.0228 6.6386 14.2384L5.19694 21.4259C5.1609 21.62 5.19694 21.8141 5.31227 21.9722C5.4204 22.1303 5.5934 22.2381 5.78802 22.2741L9.50751 22.8922V30.9062C9.50751 31.3016 9.83188 31.625 10.2283 31.625ZM18.1575 12.2188C18.1575 13.4047 17.1843 14.375 15.995 14.375C14.8056 14.375 13.8325 13.4047 13.8325 12.2188H18.1575ZM6.75393 20.9731L7.97935 14.8566L12.4269 12.6356C12.6431 14.4181 14.1497 15.8053 15.9878 15.8053C17.8259 15.8053 19.3396 14.4181 19.5487 12.6356L23.9962 14.8566L25.2216 20.9731L22.468 21.4331V18.6875C22.468 18.2922 22.1437 17.9688 21.7472 17.9688C21.3507 17.9688 21.0264 18.2922 21.0264 18.6875V30.1875H10.9347V18.6875C10.9347 18.2922 10.6104 17.9688 10.2139 17.9688C9.81746 17.9688 9.49309 18.2922 9.49309 18.6875V21.4331L6.73952 20.9731H6.75393ZM39.7824 11.5C39.7824 11.1047 39.458 10.7812 39.0615 10.7812H28.9699C28.5735 10.7812 28.2491 11.1047 28.2491 11.5V15.8125C28.2491 16.2078 28.5735 16.5312 28.9699 16.5312H39.0615C39.458 16.5312 39.7824 16.2078 39.7824 15.8125V11.5ZM38.3407 15.0938H29.6907V12.2188H38.3407V15.0938ZM39.7824 19.4062C39.7824 19.8016 39.458 20.125 39.0615 20.125H28.9699C28.5735 20.125 28.2491 19.8016 28.2491 19.4062C28.2491 19.0109 28.5735 18.6875 28.9699 18.6875H39.0615C39.458 18.6875 39.7824 19.0109 39.7824 19.4062ZM39.7824 23C39.7824 23.3953 39.458 23.7188 39.0615 23.7188H28.9699C28.5735 23.7188 28.2491 23.3953 28.2491 23C28.2491 22.6047 28.5735 22.2812 28.9699 22.2812H39.0615C39.458 22.2812 39.7824 22.6047 39.7824 23Z" fill="#F6AE24"/>
</svg>

<svg xmlns="http://www.w3.org/2000/svg" width="47" height="46" fill="none"><path fill="#F6AE24" d="M17.199 35.938H3.74A1.444 1.444 0 0 1 2.299 34.5V2.875c0-.79.649-1.437 1.442-1.437h13.162c.512 0 .995.28 1.247.725l2.264 3.946c.13.223.367.36.627.36h21.625v19.406a.722.722 0 0 0 1.441 0v-23A2.88 2.88 0 0 0 41.224 0H3.741A2.88 2.88 0 0 0 .858 2.875V34.5a2.88 2.88 0 0 0 2.883 2.875h13.458c.396 0 .72-.323.72-.719a.72.72 0 0 0-.72-.718M42.666 2.874v2.156H21.459l-2.055-3.586v-.008h21.827c.793 0 1.442.647 1.442 1.438zm4.325 42.342a.717.717 0 0 1-.721.776H34.765a.72.72 0 0 1-.72-.719c0-.395.324-.719.72-.719h10.72l-1.32-15.093h-14.54l-.251 2.94a.72.72 0 0 1-.779.653.72.72 0 0 1-.656-.776l.31-3.594a.716.716 0 0 1 .72-.654h15.86c.374 0 .684.288.72.654zM30.41 34.5H20.32a.72.72 0 0 0-.714.618l-1.441 10.063a.72.72 0 0 0 .166.575.72.72 0 0 0 .547.244h12.975c.21 0 .411-.093.548-.244a.7.7 0 0 0 .166-.575l-1.442-10.063a.72.72 0 0 0-.713-.618M19.708 44.563l1.233-8.626h8.845l1.232 8.626zm7.821-5.75v.718a2.166 2.166 0 0 1-2.162 2.157c-1.19 0-2.163-.97-2.163-2.157v-.718a.722.722 0 0 1 1.442 0v.718a.722.722 0 0 0 1.442 0v-.718a.722.722 0 0 1 1.441 0m7.209-6.47v1.438c0 1.186.973 2.157 2.162 2.157s2.163-.97 2.163-2.157v-1.437a.722.722 0 0 1 1.441 0v1.437a3.6 3.6 0 0 1-3.604 3.594 3.6 3.6 0 0 1-3.604-3.594v-1.437a.722.722 0 0 1 1.442 0M15.995 5.032a.72.72 0 0 1-.72-.718.722.722 0 0 1 1.44 0 .72.72 0 0 1-.72.718m-5.767 26.594h11.534c.396 0 .72-.323.72-.719v-8.014l3.72-.618a.726.726 0 0 0 .591-.848l-1.442-7.188a.74.74 0 0 0-.382-.503l-5.766-2.875a.9.9 0 0 0-.325-.079h-5.766a.8.8 0 0 0-.325.08l-5.766 2.874a.72.72 0 0 0-.382.503l-1.442 7.188a.7.7 0 0 0 .115.546.74.74 0 0 0 .476.302l3.72.618v8.014c0 .396.324.719.72.719m7.93-19.406a2.166 2.166 0 0 1-2.163 2.156c-1.19 0-2.162-.97-2.162-2.156zM6.753 20.973l1.225-6.116 4.448-2.221c.216 1.782 1.723 3.17 3.56 3.17a3.59 3.59 0 0 0 3.562-3.17l4.447 2.22 1.226 6.117-2.754.46v-2.745a.722.722 0 0 0-1.442 0v11.5H10.935v-11.5a.722.722 0 0 0-1.442 0v2.745l-2.753-.46zM39.782 11.5a.72.72 0 0 0-.72-.719H28.97a.72.72 0 0 0-.72.719v4.313c0 .395.323.718.72.718h10.092c.396 0 .72-.323.72-.718zm-1.441 3.594h-8.65v-2.875h8.65zm1.441 4.312a.72.72 0 0 1-.72.719H28.97a.72.72 0 0 1-.72-.719c0-.395.323-.718.72-.718h10.092c.396 0 .72.323.72.718m0 3.594a.72.72 0 0 1-.72.719H28.97a.72.72 0 0 1-.72-.719c0-.395.323-.719.72-.719h10.092c.396 0 .72.324.72.719"/></svg>
